assets/si.svg

<svg id="svg" version="1.1" xmlns="http://www.w3.org/2000/svg" xmlns:xlink="http://www.w3.org/1999/xlink" width="400" height="400" viewBox="0, 0, 400,400"><g id="svgg"><path id="path0" d="M247.313 64.615 C 230.400 69.171,224.617 87.029,236.443 98.185 C 251.417 112.311,278.022 103.252,277.995 84.037 C 277.976 70.878,261.882 60.690,247.313 64.615 M164.391 84.396 C 138.539 87.401,121.101 106.824,121.114 132.600 C 121.123 151.696,128.932 163.377,149.200 174.612 C 161.622 181.498,165.592 187.975,160.777 193.498 C 156.942 197.898,144.574 197.285,134.331 192.187 C 130.018 190.041,129.745 190.132,128.611 194.106 C 128.220 195.478,127.313 198.490,126.596 200.800 C 125.878 203.110,124.794 206.620,124.188 208.600 C 123.581 210.580,122.390 214.297,121.542 216.860 C 119.418 223.280,119.447 223.609,122.300 225.327 C 129.961 229.941,144.725 232.814,160.675 232.795 C 175.724 232.777,188.404 228.660,197.857 220.721 C 211.419 209.333,216.606 195.127,214.211 175.929 C 212.346 160.983,204.099 150.919,185.600 141.018 C 177.606 136.740,177.394 136.603,173.916 133.497 C 166.635 126.997,166.973 119.496,174.646 117.276 C 179.510 115.869,189.487 117.288,195.708 120.271 C 200.630 122.632,199.888 123.526,204.390 109.800 C 206.410 103.640,208.435 97.494,208.891 96.142 C 209.346 94.791,209.603 93.385,209.462 93.018 C 208.916 91.594,197.701 87.078,192.057 86.010 C 183.532 84.396,170.786 83.653,164.391 84.396 M251.089 117.494 L 230.777 117.607 230.403 118.593 C 229.700 120.442,230.089 229.959,230.800 230.408 C 231.960 231.142,277.473 230.908,277.757 230.167 C 278.141 229.168,278.027 118.663,277.642 118.055 C 277.207 117.367,276.474 117.352,251.089 117.494 M350.299 297.750 C 340.642 301.332,343.188 313.388,353.600 313.379 C 365.930 313.368,366.506 297.956,354.200 297.317 C 352.821 297.246,351.162 297.430,350.299 297.750 M50.400 305.585 C 45.549 306.091,39.127 307.776,38.217 308.781 C 37.278 309.819,37.247 362.218,38.186 363.157 C 39.258 364.230,55.437 364.110,56.232 363.024 C 56.682 362.408,56.801 360.380,56.806 353.224 C 56.812 344.982,57.062 342.406,57.749 343.518 C 58.115 344.110,61.695 353.974,63.222 358.600 C 65.132 364.384,62.918 363.799,82.914 363.808 C 105.211 363.818,103.289 364.276,104.185 358.740 C 104.544 356.520,104.840 356.429,112.070 356.311 C 119.692 356.187,119.793 356.224,120.212 359.320 C 120.841 363.964,120.822 363.956,131.800 363.919 C 141.270 363.886,141.646 363.722,140.199 360.259 C 139.868 359.467,138.628 355.620,137.444 351.710 C 136.259 347.799,134.635 342.530,133.834 340.000 C 133.034 337.470,131.414 332.250,130.234 328.400 C 127.705 320.144,125.881 314.319,124.785 311.000 C 124.349 309.680,123.994 308.231,123.996 307.780 C 124.004 306.090,123.484 306.000,113.749 306.000 C 103.942 306.000,103.573 306.066,103.056 307.902 C 102.122 311.226,100.582 316.297,99.808 318.600 C 98.561 322.308,96.145 330.121,90.591 348.411 C 86.444 362.066,86.032 362.815,84.482 359.521 C 84.036 358.574,82.962 356.270,82.095 354.400 C 81.227 352.530,79.388 348.570,78.008 345.600 C 74.706 338.498,74.584 337.599,76.735 336.241 C 84.180 331.541,85.723 319.512,79.785 312.455 C 75.144 306.940,63.501 304.218,50.400 305.585 M155.437 305.836 C 151.020 306.439,146.563 307.748,145.504 308.753 C 144.422 309.780,144.402 360.320,145.483 361.110 C 146.824 362.090,152.259 363.538,156.412 364.021 C 179.486 366.703,190.940 357.144,190.943 335.200 C 190.947 312.304,179.201 302.590,155.437 305.836 M243.200 305.950 C 232.531 308.369,226.539 317.092,225.580 331.600 C 224.155 353.140,233.844 365.263,251.680 364.261 C 264.569 363.537,271.877 355.166,273.558 339.200 C 275.962 316.357,262.471 301.580,243.200 305.950 M314.960 305.980 C 309.524 307.350,305.271 310.734,302.680 315.748 L 301.001 319.000 301.000 324.400 L 301.000 329.800 302.463 332.600 C 304.343 336.196,306.939 338.568,312.433 341.708 C 314.821 343.072,317.200 345.714,317.200 347.001 C 317.200 350.016,311.534 350.995,306.946 348.774 C 304.492 347.586,304.268 347.789,302.655 352.671 C 300.084 360.454,300.088 361.022,302.721 362.354 C 305.990 364.007,318.173 365.056,322.235 364.033 C 340.453 359.445,344.017 337.975,328.061 328.934 C 321.395 325.156,320.000 323.849,320.000 321.378 C 320.000 318.274,324.744 317.347,329.918 319.441 C 331.923 320.252,332.454 319.948,333.137 317.600 C 333.361 316.830,334.007 314.878,334.572 313.262 C 336.047 309.045,335.980 308.609,333.700 307.581 C 328.761 305.354,320.306 304.632,314.960 305.980 M199.100 306.432 C 198.444 306.814,198.400 308.594,198.400 334.811 L 198.400 362.782 199.300 363.367 C 200.633 364.235,217.049 364.085,217.609 363.200 C 218.344 362.037,218.109 306.527,217.367 306.243 C 216.276 305.824,199.852 305.994,199.100 306.432 M61.520 316.832 C 65.580 318.247,65.538 330.271,61.463 333.379 C 59.905 334.567,57.433 334.784,57.043 333.767 C 56.711 332.903,56.733 317.000,57.067 316.667 C 57.480 316.253,60.143 316.352,61.520 316.832 M168.463 319.394 C 172.058 321.773,172.809 343.896,169.464 348.875 C 168.348 350.536,165.614 351.641,164.633 350.827 C 163.953 350.263,163.630 318.903,164.297 318.236 C 164.776 317.757,166.869 318.339,168.463 319.394 M251.287 319.100 C 254.474 322.754,254.911 342.671,251.923 348.103 C 249.547 352.422,246.362 349.502,245.605 342.312 C 244.893 335.550,245.086 329.263,246.226 322.112 C 246.691 319.195,249.771 317.363,251.287 319.100 M344.619 319.039 C 343.933 319.724,343.818 362.753,344.501 363.434 C 344.870 363.803,362.173 363.788,362.771 363.418 C 363.635 362.884,363.342 319.852,362.469 319.062 C 361.391 318.087,345.591 318.066,344.619 319.039 M113.195 327.500 C 113.618 328.968,115.139 335.873,116.247 341.357 C 116.991 345.040,116.832 345.200,112.431 345.200 C 107.465 345.200,107.284 344.854,108.992 338.620 C 109.537 336.629,110.453 333.200,111.027 331.000 C 112.324 326.029,112.333 326.000,112.569 326.000 C 112.675 326.000,112.957 326.675,113.195 327.500 " stroke="none" fill="#fbf9f4" fill-rule="evenodd"></path><path id="path1" d="M0.000 200.000 L 0.000 400.000 200.000 400.000 L 400.000 400.000 400.000 200.000 L 400.000 0.000 200.000 0.000 L 0.000 0.000 0.000 200.000 M260.827 64.625 C 287.294 72.243,281.583 105.001,253.800 104.934 C 235.661 104.890,224.320 87.853,233.363 74.230 C 238.678 66.222,251.182 61.849,260.827 64.625 M185.857 84.995 C 194.658 86.317,198.757 87.475,205.103 90.436 C 209.853 92.652,209.994 92.865,208.891 96.142 C 208.435 97.494,206.410 103.640,204.390 109.800 C 199.888 123.526,200.630 122.632,195.708 120.271 C 189.487 117.288,179.510 115.869,174.646 117.276 C 166.973 119.496,166.635 126.997,173.916 133.497 C 177.394 136.603,177.606 136.740,185.600 141.018 C 207.054 152.501,214.781 164.061,214.797 184.703 C 214.814 206.403,201.073 224.080,179.260 230.420 C 163.182 235.094,134.215 232.503,122.300 225.327 C 119.447 223.609,119.418 223.280,121.542 216.860 C 122.390 214.297,123.581 210.580,124.188 208.600 C 124.794 206.620,125.878 203.110,126.596 200.800 C 127.313 198.490,128.220 195.478,128.611 194.106 C 129.745 190.132,130.018 190.041,134.331 192.187 C 144.574 197.285,156.942 197.898,160.777 193.498 C 165.592 187.975,161.622 181.498,149.200 174.612 C 128.932 163.377,121.123 151.696,121.114 132.600 C 121.097 99.270,148.200 79.342,185.857 84.995 M277.642 118.055 C 278.027 118.663,278.141 229.168,277.757 230.167 C 277.473 230.908,231.960 231.142,230.800 230.408 C 230.089 229.959,229.700 120.442,230.403 118.593 L 230.777 117.607 251.089 117.494 C 276.474 117.352,277.207 117.367,277.642 118.055 M358.600 298.449 C 362.998 300.664,364.577 306.344,361.775 309.865 C 358.285 314.250,350.161 314.716,346.547 310.739 C 339.885 303.408,349.329 293.780,358.600 298.449 M65.410 305.766 C 74.319 307.334,79.172 310.396,82.065 316.272 C 85.323 322.890,82.778 332.426,76.735 336.241 C 74.584 337.599,74.706 338.498,78.008 345.600 C 79.388 348.570,81.227 352.530,82.095 354.400 C 82.962 356.270,84.036 358.574,84.482 359.521 C 86.032 362.815,86.444 362.066,90.591 348.411 C 96.145 330.121,98.561 322.308,99.808 318.600 C 100.582 316.297,102.122 311.226,103.056 307.902 C 103.573 306.066,103.942 306.000,113.749 306.000 C 123.484 306.000,124.004 306.090,123.996 307.780 C 123.994 308.231,124.349 309.680,124.785 311.000 C 125.881 314.319,127.705 320.144,130.234 328.400 C 131.414 332.250,133.034 337.470,133.834 340.000 C 134.635 342.530,136.259 347.799,137.444 351.710 C 138.628 355.620,139.868 359.467,140.199 360.259 C 141.646 363.722,141.270 363.886,131.800 363.919 C 120.822 363.956,120.841 363.964,120.212 359.320 C 119.793 356.224,119.692 356.187,112.070 356.311 C 104.840 356.429,104.544 356.520,104.185 358.740 C 103.289 364.276,105.211 363.818,82.914 363.808 C 62.918 363.799,65.132 364.384,63.222 358.600 C 61.695 353.974,58.115 344.110,57.749 343.518 C 57.062 342.406,56.812 344.982,56.806 353.224 C 56.801 360.380,56.682 362.408,56.232 363.024 C 55.437 364.110,39.258 364.230,38.186 363.157 C 37.247 362.218,37.278 309.819,38.217 308.781 C 40.553 306.200,57.317 304.342,65.410 305.766 M171.244 306.046 C 184.942 308.834,190.946 317.720,190.943 335.200 C 190.940 357.144,179.486 366.703,156.412 364.021 C 152.259 363.538,146.824 362.090,145.483 361.110 C 144.402 360.320,144.422 309.780,145.504 308.753 C 148.500 305.909,163.053 304.378,171.244 306.046 M253.800 305.595 C 267.328 307.387,275.452 321.203,273.558 339.200 C 271.877 355.166,264.569 363.537,251.680 364.261 C 233.844 365.263,224.155 353.140,225.580 331.600 C 226.827 312.728,236.983 303.369,253.800 305.595 M328.200 305.968 C 335.803 307.566,336.347 308.188,334.572 313.262 C 334.007 314.878,333.361 316.830,333.137 317.600 C 332.454 319.948,331.923 320.252,329.918 319.441 C 324.744 317.347,320.000 318.274,320.000 321.378 C 320.000 323.849,321.395 325.156,328.061 328.934 C 344.017 337.975,340.453 359.445,322.235 364.033 C 318.173 365.056,305.990 364.007,302.721 362.354 C 300.088 361.022,300.084 360.454,302.655 352.671 C 304.268 347.789,304.492 347.586,306.946 348.774 C 311.534 350.995,317.200 350.016,317.200 347.001 C 317.200 345.714,314.821 343.072,312.433 341.708 C 306.939 338.568,304.343 336.196,302.463 332.600 L 301.000 329.800 301.000 324.400 L 301.001 319.000 302.680 315.748 C 307.131 307.133,316.559 303.520,328.200 305.968 M217.367 306.243 C 218.109 306.527,218.344 362.037,217.609 363.200 C 217.049 364.085,200.633 364.235,199.300 363.367 L 198.400 362.782 198.400 334.811 C 198.400 308.594,198.444 306.814,199.100 306.432 C 199.852 305.994,216.276 305.824,217.367 306.243 M57.067 316.667 C 56.733 317.000,56.711 332.903,57.043 333.767 C 57.433 334.784,59.905 334.567,61.463 333.379 C 65.538 330.271,65.580 318.247,61.520 316.832 C 60.143 316.352,57.480 316.253,57.067 316.667 M164.297 318.236 C 163.630 318.903,163.953 350.263,164.633 350.827 C 165.614 351.641,168.348 350.536,169.464 348.875 C 172.809 343.896,172.058 321.773,168.463 319.394 C 166.869 318.339,164.776 317.757,164.297 318.236 M247.451 319.612 C 246.891 320.278,246.339 321.403,246.226 322.112 C 244.253 334.486,245.132 347.054,248.147 349.556 C 250.563 351.561,252.605 348.518,253.416 341.703 C 255.273 326.084,252.051 314.146,247.451 319.612 M362.469 319.062 C 363.342 319.852,363.635 362.884,362.771 363.418 C 362.173 363.788,344.870 363.803,344.501 363.434 C 343.818 362.753,343.933 319.724,344.619 319.039 C 345.591 318.066,361.391 318.087,362.469 319.062 M112.223 326.500 C 112.139 326.775,111.601 328.800,111.027 331.000 C 110.453 333.200,109.537 336.629,108.992 338.620 C 107.284 344.854,107.465 345.200,112.431 345.200 C 117.487 345.200,117.306 346.123,114.659 333.800 C 113.104 326.564,112.633 325.152,112.223 326.500 " stroke="none" fill="#f48323" fill-rule="evenodd"></path></g></svg>

<svg xmlns="http://www.w3.org/2000/svg" width="400" height="400"><g fill-rule="evenodd"><path fill="#fbf9f4" d="M247.3 64.6c-16.9 4.6-22.7 22.4-10.9 33.6 15 14.1 41.6 5 41.6-14.2 0-13.1-16.1-23.3-30.7-19.4m-83 19.8a47 47 0 0 0-43.2 48.2c0 19.1 7.8 30.8 28.1 42 12.4 6.9 16.4 13.4 11.6 18.9-3.9 4.4-16.2 3.8-26.5-1.3-4.3-2.2-4.6-2-5.7 2a385.4 385.4 0 0 1-4.4 14.4l-2.7 8.3c-2 6.4-2 6.7.8 8.4 7.7 4.6 22.4 7.5 38.4 7.5 15 0 27.7-4.1 37.2-12 13.5-11.5 18.7-25.7 16.3-44.9-1.9-15-10.1-25-28.6-34.9-8-4.3-8.2-4.4-11.7-7.5-7.3-6.5-7-14 .7-16.2a37 37 0 0 1 21.1 3c5 2.3 4.2 3.2 8.7-10.5l4.5-13.7c.4-1.3.7-2.7.6-3-.6-1.5-11.8-6-17.4-7-8.6-1.7-21.3-2.4-27.7-1.7m86.7 33-20.3.2-.4 1c-.7 1.8-.3 111.4.4 111.8 1.2.7 46.7.5 47-.2.3-1 .2-111.5-.2-112.1-.4-.7-1.1-.7-26.5-.6m99.2 180.3c-9.7 3.5-7.1 15.6 3.3 15.6 12.3 0 13-15.4.6-16-1.4-.2-3 0-3.9.4m-299.9 7.8c-4.9.5-11.3 2.2-12.2 3.2-1 1-1 53.4 0 54.4s17.2 1 18-.2c.5-.6.6-2.6.6-9.8 0-8.2.3-10.8 1-9.7.3.6 3.9 10.5 5.4 15.1 2 5.8-.3 5.2 19.7 5.2 22.3 0 20.4.5 21.3-5 .3-2.3.6-2.4 7.9-2.5 7.6-.1 7.7 0 8.1 3 .6 4.7.6 4.7 11.6 4.6 9.5 0 9.8-.2 8.4-3.6l-2.8-8.6a1245.2 1245.2 0 0 0-7.2-23.3 981 981 0 0 0-6.2-20.6c0-1.7-.5-1.8-10.3-1.8s-10.1 0-10.6 1.9a1461 1461 0 0 0-12.5 40.5c-4.2 13.7-4.6 14.4-6.1 11.1a1249 1249 0 0 1-6.5-13.9c-3.3-7.1-3.4-8-1.3-9.4 7.5-4.7 9-16.7 3-23.7-4.6-5.6-16.2-8.3-29.3-7m105 .3c-4.4.6-8.8 2-9.9 3-1 1-1.1 51.5 0 52.3 1.3 1 6.8 2.4 11 3 23 2.6 34.4-7 34.4-28.9 0-22.9-11.7-32.6-35.5-29.4m87.8.1c-10.7 2.5-16.7 11.2-17.6 25.7-1.4 21.5 8.2 33.7 26 32.7 13-.8 20.3-9.1 22-25.1 2.4-22.8-11.1-37.6-30.4-33.3m71.8 0a18.6 18.6 0 0 0-12.3 9.8L301 319v10.8l1.5 2.8c1.8 3.6 4.4 6 10 9.1 2.3 1.4 4.7 4 4.7 5.3 0 3-5.7 4-10.3 1.8-2.4-1.2-2.6-1-4.2 3.9-2.6 7.8-2.6 8.3 0 9.7a47.3 47.3 0 0 0 19.5 1.6c18.3-4.6 21.8-26 5.9-35-6.7-3.8-8.1-5.2-8.1-7.6 0-3.1 4.7-4 10-2 2 .9 2.5.5 3.1-1.8l1.5-4.3c1.4-4.3 1.4-4.7-.9-5.7-5-2.2-13.4-3-18.7-1.6m-115.9.4c-.7.4-.7 2.2-.7 28.4v28l.9.6c1.3.8 17.7.7 18.3-.2.7-1.2.5-56.7-.2-57-1.1-.4-17.5-.2-18.3.2M61.5 316.8c4 1.4 4 13.5 0 16.6-1.6 1.2-4 1.4-4.5.4-.3-.9-.3-16.8 0-17.1.5-.4 3.1-.3 4.5.1m107 2.6c3.6 2.4 4.3 24.5 1 29.5-1.2 1.6-3.9 2.7-4.9 2-.6-.6-1-32-.3-32.7.5-.4 2.6.1 4.2 1.2m82.8-.3c3.2 3.7 3.6 23.6.6 29-2.4 4.3-5.5 1.4-6.3-5.8-.7-6.8-.5-13 .6-20.2.5-3 3.6-4.7 5-3m93.4 0c-.7.6-.8 43.7-.1 44.3.4.4 17.7.4 18.3 0 .8-.5.5-43.5-.3-44.3-1.1-1-17-1-17.9 0m-231.4 8.4c.4 1.5 2 8.4 3 13.9.8 3.6.6 3.8-3.8 3.8-5 0-5.1-.3-3.4-6.6a800 800 0 0 0 3.6-12.6s.4.7.6 1.5"/><path fill="#f48323" d="M0 200v200h400V0H0v200M260.8 64.6c26.5 7.6 20.8 40.4-7 40.3-18.1 0-29.5-17-20.4-30.7 5.3-8 17.8-12.4 27.4-9.6m-75 20.4a59.5 59.5 0 0 1 19.3 5.4c4.8 2.3 4.9 2.5 3.8 5.7l-4.5 13.7c-4.5 13.7-3.8 12.8-8.7 10.5a37 37 0 0 0-21-3c-7.7 2.2-8 9.7-.8 16.2 3.5 3.1 3.7 3.2 11.7 7.5 21.5 11.5 29.2 23 29.2 43.7a47 47 0 0 1-35.5 45.7c-16.1 4.7-45 2.1-57-5-2.9-1.8-2.9-2.1-.8-8.5a484 484 0 0 0 7.1-22.8c1.1-4 1.4-4 5.7-2 10.3 5.2 22.6 5.8 26.5 1.4 4.8-5.5.8-12-11.6-18.9-20.3-11.2-28-22.9-28-42-.1-33.3 27-53.3 64.7-47.6m91.7 33c.4.7.5 111.2.2 112.2-.3.7-45.8 1-47 .2-.7-.4-1.1-110-.4-111.8l.4-1 20.3-.1c25.4-.1 26.1-.1 26.5.6m81 180.3c4.4 2.3 6 8 3.2 11.5-3.5 4.4-11.6 4.8-15.3.8-6.6-7.3 2.8-17 12.1-12.3m-293.2 7.4c9 1.5 13.8 4.6 16.7 10.5 3.2 6.6.7 16.1-5.4 20-2.1 1.3-2 2.2 1.3 9.3a30485.5 30485.5 0 0 1 6.5 14c1.5 3.2 2 2.5 6-11.2a1461 1461 0 0 1 12.6-40.5c.5-1.8.8-1.9 10.6-1.9 9.8 0 10.3 0 10.3 1.8a981 981 0 0 1 9.8 32.2 1245.2 1245.2 0 0 1 6.4 20.3c1.4 3.4 1 3.6-8.4 3.6-11 0-11 0-11.6-4.6-.4-3-.5-3.1-8.1-3-7.3.1-7.6.2-8 2.4-.8 5.6 1.1 5.1-21.2 5.1-20 0-17.8.6-19.7-5.2-1.5-4.6-5-14.5-5.5-15-.6-1.2-.9 1.4-.9 9.6 0 7.2-.1 9.2-.6 9.8-.8 1.1-17 1.2-18 .2s-1-53.4 0-54.4c2.4-2.6 19.1-4.5 27.2-3m105.8.2c13.7 2.8 19.7 11.7 19.7 29.2 0 22-11.4 31.5-34.5 28.8-4.1-.5-9.6-2-11-2.9-1-.8-1-51.3.1-52.3 3-2.9 17.6-4.4 25.7-2.8m82.6-.4c13.5 1.8 21.7 15.6 19.8 33.6-1.7 16-9 24.3-22 25-17.8 1-27.4-11-26-32.6 1.2-18.9 11.4-28.2 28.2-26m74.4.4c7.6 1.6 8.1 2.2 6.4 7.3l-1.5 4.3c-.6 2.3-1.2 2.7-3.2 1.8-5.2-2-9.9-1.1-9.9 2 0 2.4 1.4 3.8 8 7.5 16 9 12.5 30.5-5.8 35.1-4 1-16.2 0-19.5-1.6-2.6-1.4-2.6-2 0-9.7 1.6-5 1.8-5.1 4.2-4 4.6 2.3 10.3 1.3 10.3-1.7 0-1.3-2.4-4-4.8-5.3-5.5-3.1-8-5.5-10-9.1l-1.4-2.8V319l1.7-3.3c4.4-8.6 13.9-12.2 25.5-9.7m-110.8.2c.7.3 1 55.8.2 57-.6.9-17 1-18.3.2l-.9-.6v-28c0-26.2 0-28 .7-28.4.8-.4 17.2-.6 18.3-.2M57 316.7c-.4.3-.4 16.2 0 17 .3 1 2.8.9 4.4-.3 4-3.1 4-15.2 0-16.6-1.4-.4-4-.5-4.4-.1m107.2 1.5c-.7.7-.3 32 .3 32.6 1 .8 3.7-.3 4.9-2 3.3-4.9 2.6-27-1-29.4-1.6-1-3.7-1.6-4.2-1.2m83.2 1.4c-.6.7-1.2 1.8-1.3 2.5-2 12.4-1 25 2 27.5 2.4 2 4.4-1 5.2-7.9 1.9-15.6-1.3-27.6-6-22m115-.6c1 .8 1.2 43.8.4 44.3-.6.4-18 .4-18.3 0-.7-.6-.6-43.7.1-44.4 1-1 16.8-1 17.9 0m-250.3 7.5a310.4 310.4 0 0 0-3.2 12.1c-1.7 6.3-1.5 6.6 3.4 6.6 5 0 5 1 2.3-11.4-1.6-7.2-2-8.6-2.5-7.3"/></g></svg>
